X: 403
T: The bonniest Lass in a' the world
B: John Pringle "Collection of Reels Strathspeys & Jigs", 1801 p.40#3
Z: 2011 John Chambers <jc:trillian.mit.edu>
Q: "Slowish"
R: reel, air
M: C
L: 1/8
K: G
V: 1
BA |\
B2D2 {F}TE2G2 | cBTAG E2DE | G2g2 degd | ~e4 d2ef |\
(gf).e.d efgB | cBAG {G}E2DE | G2g2 decd | B3A G2 :|
ef |\
gfed efge | agfe fgaf | Tfefa bgab | Te4 d2ga |\
(ba).g.e degB | cBAG {F}E2DE | G2g2 decd | {c}~B3A G2 |]
V: 2 clef=bass middle=d
z2 |\
G2B2 c2Bc | d2D2 zcBc | B2ba b2g2 | c'2c2 gbc'a |\
b2g2 c'2b2 | a3b c'2bc' | b3c' d'2d2 | g2d2 G2 :|
z2 |\
B2cB c2Bc | d2d^c d2=c2 | B2BA G2g2 | c'2c2 gGBA | G2c2 B2G2 | A3B c2Bc | B3c d2D2 | g2d2 G2 |]

%%sep 2 1 500

